X:1
T:The Singing Stream
L:1/8
M:4/4
I:linebreak $
K:D
V:1 treble 
V:1
 dA A2 FAdF | Adef edBc | dA A2 fged | edef g2 fe | dA A2 FAdF | Adef ed(3efg |$ a3 b bagf |1 %7
 edef g2 fe :|2 edef g2 fg | adde cdef | g2 fg egfe | dA A2 FAdf |$ fgfd efge | a2 de cdef | %14
 g3 f egfe | dA A2 FAdf | edef d2 fg | a2 de cdef |$ g3 f egfe | dA A2 FAdf | fgfd efge | %21
 a3 b bagf | edef gefe | dFAd FAdG |$ AdFA dgfe |] %25
